X: 42849
T: Wild Goose Chase
R: slip jig
M: 9/8
K: Dmajor
(B3 {d}B2) F G2 B|A3 B2 c d2 c|
(B3 {d}B2) F G2 B|A2 G F2 E F2 D:|
|:D2 F A2 F G2 B|A3 B2 c d2 A|
D2 F A2 F G2 B|A2 G F2 E F2 D:|

